X: 3017
T: Battle Of The Somme, The
R: slip jig
M: 9/8
K: Dmajor
A|:faf d3 dcd|edG B3A3|BGB A3f3|
faf e3A3|faf d3 dcd|edG B3A3|
BGB A3f3|1 efe d3 d2A:|2 efe d3d3||
|:dcd e3A3|efg faf d2d|fef g3A3|
faf e3 A3|faf d3 dcd|edG B3A3|
BGB A3f3|1 efe d3 d3:|2 efe d3d2A||

